incomeartour/img/icons/user-two.svg

<svg width="28" height="23" viewBox="0 0 28 23" fill="none" xmlns="http://www.w3.org/2000/svg">
<g opacity="0.9">
<path d="M24.1674 10.2047C24.0431 10.1219 23.9188 10.1219 23.7945 10.2047C22.7585 10.9506 21.4739 11.4064 20.1065 11.4064C18.7391 11.4064 17.4545 10.9506 16.4186 10.2047C16.2943 10.1219 16.1699 10.1219 16.0456 10.2047C15.2169 10.7434 14.5539 11.4479 13.9738 12.2766C16.0042 14.017 17.2473 16.7933 17.4545 20.1497C21.9712 20.4812 27.8139 19.9426 27.8139 18.4094C27.8139 14.8457 26.6122 11.7794 24.1674 10.2047Z" fill="black"/>
<path d="M20.1064 9.78995C22.6467 9.78995 24.706 7.73065 24.706 5.19038C24.706 2.65012 22.6467 0.59082 20.1064 0.59082C17.5661 0.59082 15.5068 2.65012 15.5068 5.19038C15.5068 7.73065 17.5661 9.78995 20.1064 9.78995Z" fill="black"/>
<path d="M12.1916 12.9401C12.0673 12.8572 11.943 12.8572 11.8187 12.9401C10.7827 13.686 9.49816 14.1418 8.13072 14.1418C6.76328 14.1418 5.47872 13.686 4.44278 12.9401C4.31847 12.8572 4.19416 12.8572 4.06984 12.9401C1.62503 14.5147 0.42334 17.5811 0.42334 21.1447C0.42334 23.5895 15.8795 23.5895 15.8795 21.1447C15.8381 17.6225 14.6364 14.5147 12.1916 12.9401Z" fill="black"/>
<path d="M8.13069 12.5243C10.671 12.5243 12.7303 10.465 12.7303 7.92476C12.7303 5.38449 10.671 3.3252 8.13069 3.3252C5.59042 3.3252 3.53113 5.38449 3.53113 7.92476C3.53113 10.465 5.59042 12.5243 8.13069 12.5243Z" fill="black"/>
</g>
</svg>

<svg width="28" height="23" fill="none" xmlns="http://www.w3.org/2000/svg"><path d="M24.167 10.205a.311.311 0 00-.373 0 6.328 6.328 0 01-3.688 1.201 6.327 6.327 0 01-3.687-1.201.311.311 0 00-.373 0c-.83.538-1.492 1.243-2.072 2.072 2.03 1.74 3.273 4.516 3.48 7.873 4.517.331 10.36-.207 10.36-1.74 0-3.564-1.202-6.63-3.647-8.205zm-4.061-.415a4.6 4.6 0 100-9.2 4.6 4.6 0 000 9.2zm-7.914 3.15a.31.31 0 00-.373 0 6.328 6.328 0 01-3.688 1.202 6.328 6.328 0 01-3.688-1.202.31.31 0 00-.373 0C1.625 14.515.423 17.581.423 21.145c0 2.445 15.457 2.445 15.457 0-.042-3.523-1.244-6.63-3.688-8.205zm-4.062-.416a4.6 4.6 0 100-9.199 4.6 4.6 0 000 9.2z" opacity=".9" fill="#000"/></svg>
